X:335
T: Rekruten sind lustige Brder (4-34), S. 47
N: P0595
O: Lothringen
S: PINCK, Louis: Verklingende Weisen Bd 4, Kassel 1939]
R: Soldatenlied]
M: 6/8
L: 1/16
K: G
DG | G3FGBA2G2F2 | G3AB2A4
DA | A2G2A2d2c2B2 | A6z4
GA | B2A2B2c2B2c2 | d6e2d2
cd | B3AG2A2G2F2 | G6z4

@@@ Tune index: 7885
